X:1
T:Froelich, 98.98 D
T:Froelich, 98.98 D
T:Gideon Froelich, 1885
T:Public Domain Courtesy of the Cyber Hymnal™
C:Gideon Froelich, 1885
Z:Public Domain
Z:Courtesy of the Cyber Hymnal™
%%score ( 1 2 ) ( 3 4 )
L:1/8
Q:1/4=90
M:6/8
K:G
V:1 treble 
V:2 treble 
V:3 bass 
V:4 bass 
V:1
 D/D/ | [GB]>[GB][GB] [Gd][GB][DG] | ([EA]3 [CE]2) [EA] | [DG]>[DG][DG] [DF][DE]D | %4
 [DB]3- [DB]2 [GB]/[Gc]/ | [Gd]>[Gd][Gd] [Gd][GB][DG] | ([DF]3 [CE]2) ([CE]/[CE]/) | %7
 [B,D][Dc][DB] [DA][DE][DF] | [DG]3- [DG]2 [EG]/[EG]/ | [=FG]>[FG][FG] [FG][FA][FG] | %10
 [Ee]3- [Ee]2 [Ge] | [GA]>[GA][GA] [GA][GB][GA] | [Fd]3- [Fd]2 D/D/ | [GB]>[GB][GB] [Gd][DB][DG] | %14
 ([EA]3 [CE]2) [CE] | [B,D][Dc][DB] [DA][DE][DF] | [DG]3- [DG]2 |] %17
V:2
 D/D/ | x6 | x6 | x5 D | x6 | x6 | x6 | x6 | x6 | x6 | x6 | x6 | x5 D/D/ | x6 | x6 | x6 | x5 |] %17
V:3
 [G,B,]/[G,B,]/ | [G,D]>[G,D][G,D] [G,B,][G,B,][G,B,] | ([C,-C]3 [C,G,]2) [C,C] | %3
 [D,B,]>[D,B,][D,B,] [D,A,][D,G,][D,F,] | [G,,G,]3- [G,,G,]2 G,/[G,A,]/ | %5
 [G,B,]>[G,B,][G,B,] [G,B,][G,B,][G,B,] | [C,G,]3- [C,G,]2 ([C,G,]/[C,G,]/) | %7
 [D,G,][D,F,][D,G,] [D,C][D,A,][D,C] | [G,,G,B,]3- [G,,G,B,]2 [G,C]/[G,C]/ | %9
 [G,B,]>[G,B,][G,B,] [G,B,][G,B,][G,B,] | [C,G,]3- [C,G,]2 [C,C] | %11
 [^C,A,]>[C,A,][C,A,] [C,A,][C,A,][C,A,] | [D,A,]3- [D,A,]2 [F,A,]/[F,A,]/ | %13
 G,>[G,D][G,D] [G,B,][G,B,][G,B,] | ([C,-C]3 [C,G,]2) [C,G,] | %15
 [D,G,][D,F,][D,G,] [D,C][D,A,][D,C] | [G,,G,B,]3- [G,,G,B,]2 |] %17
V:4
 x | x6 | x6 | x6 | x5 G,/ x/ | x6 | x6 | x6 | x6 | x6 | x6 | x6 | x6 | G,3/2 x9/2 | x6 | x6 | %16
 x5 |] %17

